X:1
T:l - l,
Q:"a 1"
M:2/4
L:1/8
%%text Fonte default : 
K:F
%K:none
%%postscript domovel_inicio domovel_iniciais
% %postscript domovel_nomes
[!domovel_s!c][!head-fi!=B]2c | dc2A | cA2F | G2z2 | AG2F | DF2G | FG2D | F2z2 |
GA2c | A2F2 | GA2c | A2z2 | dc2A | GF2D | GA2G | F2z2 |]
% %postscript domovel_iniciais
% %postscript /domovel_font {/Times-BoldItalic 10} def
% %postscript /domovel_font {/Helvetica-Bold 10} def

